X:1
T:O regadinho
T:O regadinho
T:de S. Mamede d'Infesta
T:Galáxia Sonora de Coimbra 2020 (A.Caetano)
Z:Galáxia Sonora de Coimbra 2020 (A.Caetano)
%%score 1 { 2 | 3 }
L:1/8
M:6/8
K:F
V:1 treble nm="Voz" snm="Voz"
V:2 treble nm="Piano" snm="Pno."
V:3 bass 
V:1
"^Allegre e chulado" z6 | z6 | z4 z2 | z6 | z6 | z6 | z6 | z6 | ccc ccc | c2 A F2 G | A2 c B2 A | %11
w: ||||||||O cra- vo de- pois de|sec- co Se- ne-|fi- ca amor per-|
 G2 G z z2 | GGG GGG | c2 =B c2 _B | A2 F G2 E | F2 F z z2 |] AAA AAA | d2 ^c d2 =c | B2 G A2 B | %19
w: di- do|An- tes que'eu quei- ra não|pos- so Ti- rar|de ti o sen-|ti- do|Agoa le- va o re- ga-|di- nho Vai re-|gar- o al- mei-|
 A3 z z2 | ccc ccc | c2 z B2 G | A2 F G2 c | F3 z z2!D.C.! |] %24
w: rão-|Vi- ra par e tro- ca|par Vi- ra-|te pra'a- qui Jo-|ão.|
V:2
 [cc'][cc'][cc'] [cc'][cc'][cc'] | [cc']2 [Aa] [Ff]2 [Gg] | [Aa]2 [cc'] [Bb]2 [Aa] | [Gg]3 z z2 | %4
 [Gg][Gg][Gg] [Gg][Gg][Gg] | [cc']2 [=B=b] [cc']2 [_B_b] | [Aa]2 [Ff] [Gg]2 [Ee] | [Ff]3 z z2 | %8
 z [A,CF][A,CF] z [A,CF][A,CF] | z [A,CF][A,CF] z [A,CF][A,CF] | z [A,CF][A,CF] z [A,CF][A,CF] | %11
 z [G,CE][G,CE] z [G,CE][G,CE] | z [G,CE][G,CE] z [G,CE][G,CE] | z [A,CF][A,CF] z [A,CF][A,CF] | %14
 z [G,CE][G,CE] z [G,CE][G,CE] | z [A,CF][A,CF] z [A,CF][A,CF] |] z [A,DF][A,DF] z [A,DF][A,DF] | %17
 z [A,DF][A,DF] z [A,DF][A,DF] | z [B,DG][B,DG] z [B,DG][B,DG] | z [A,DF][A,DF] z [A,DF][A,DF] | %20
 z [B,EG][B,EG] z [B,EG][B,EG] | z [CFA][CFA] z [CFA][CFA] | z [G,CF][G,CF] z [B,CE][B,CE] | %23
 z [CFA][CFA] [CFA]2 z |] %24
V:3
 F,A,C F,A,C | F,A,C F,A,C | F,A,C F,A,C | E,G,C E,G,C | C,E,B, C,E,B, | F,A,C F,A,C | %6
 C,F,A, C,G,B, | F,A,C F,A,C | [F,,F,] z z [F,,F,] z z | [F,,F,] z z [F,,F,] z z | %10
 [F,,F,] z z [F,,F,] z z | [C,,C,] z z [C,,C,] z z | [C,,C,] z z [C,,C,] z z | %13
 [F,,F,] z z [F,,F,] z z | [C,,C,] z z [C,,C,] z z | [F,,F,] z z [F,,F,] z z |] %16
 [D,,D,] z z [D,,D,] z z | [D,,D,] z z [D,,D,] z z | [D,,D,] z z [D,,D,] z z | %19
 [D,,D,] z z [D,,D,] z z | [C,,C,] z z [C,,C,] z z | [F,,F,] z z [B,,,B,,] z z | %22
 [C,,C,] z z [C,,C,] z z | [F,,F,]C,A,, F,,2 z |] %24

